gama.ui.shared/icons_svg/dark/navigator/project.open2.svg

<svg height="25" viewBox="-130.997 -3555.419 25 25" width="25" xmlns="http://www.w3.org/2000/svg"><g fill="none"><path d="m-126.65697-3554.9187h16.32c2.12078 0 3.84 1.7192 3.84 3.84v16.32c0 2.1207-1.71922 3.84-3.84 3.84h-16.32c-2.12077 0-3.84-1.7193-3.84-3.84v-16.32c0-2.1208 1.71923-3.84 3.84-3.84z" fill="#666"/><path d="m-126.65697-3554.9187h16.32c2.12078 0 3.84 1.7192 3.84 3.84v16.32c0 2.1207-1.71922 3.84-3.84 3.84h-16.32c-2.12077 0-3.84-1.7193-3.84-3.84v-16.32c0-2.1208 1.71923-3.84 3.84-3.84z" stroke="#fff" stroke-linecap="round" stroke-linejoin="round" stroke-width=".25"/><g fill="#c0e0ff"><path d="m-112.64182-3545.5517v-.7998c0-.6628-.53726-1.2-1.2-1.2h-4.4c-.88366 0-1.6-.7165-1.6-1.6 0-.4418-.35818-.8-.8-.8h-5.2c-.66274 0-1.2.5372-1.2 1.2v8.8c0 .6627.53726 1.2 1.2 1.2h.8c.66274 0 1.2-.5373 1.2-1.2v-4c0-1.1045.89543-2 2-2h8c.45024 0 .86573.1488 1.2.3998zm0 1.6002c0-.6628-.53726-1.2-1.2-1.2h-8c-.66274 0-1.2.5372-1.2 1.2v4c0 .4502-.14878.8657-.39986 1.2h9.59986c.66274 0 1.2-.5373 1.2-1.2zm-13.2-6.8h5.2c.88365 0 1.6.7165 1.6 1.6 0 .4418.35817.8.8.8h4.4c1.10457 0 2 .8955 2 2v6.4c0 1.1045-.89543 2-2 2h-12c-1.10457 0-2-.8955-2-2v-8.8c0-1.1045.89543-2 2-2z"/><path d="m-117.8562-3537.626c.07336.0857.18238.14.30409.14s.23073-.0543.3041-.14zm-7.29591 0v.54c0 1.1047.89543 2 2 2h12c1.10457 0 2-.8953 2-2v-6.4c0-1.1045-.89543-2-2-2h-.31836v.8h.31836c.66274 0 1.2.5374 1.2 1.2v6.4c0 .663-.53726 1.2-1.2 1.2h-12c-.66274 0-1.2-.537-1.2-1.2v-.54z"/></g></g></svg>

<?xml version="1.0" encoding="UTF-8" standalone="no"?>
<!DOCTYPE svg PUBLIC "-//W3C//DTD SVG 1.1//EN" "http://www.w3.org/Graphics/SVG/1.1/DTD/svg11.dtd">
<svg xmlns="http://www.w3.org/2000/svg" xmlns:xl="http://www.w3.org/1999/xlink" version="1.1" xmlns:dc="http://purl.org/dc/elements/1.1/" viewBox="-130.99697 -3555.4187 25 25" width="25" height="25">
  <defs/>
  <g id="SOURCES" stroke-opacity="1" fill="none" stroke="none" fill-opacity="1" stroke-dasharray="none">
    <title>SOURCES</title>
    <g id="SOURCES_Dark">
      <title>Dark</title>
      <g id="Graphic_11701">
        <title>views/view.other</title>
        <path d="M -126.65697 -3554.9187 L -110.33697 -3554.9187 C -108.21619 -3554.9187 -106.49697 -3553.1995 -106.49697 -3551.0787 L -106.49697 -3534.7587 C -106.49697 -3532.638 -108.21619 -3530.9187 -110.33697 -3530.9187 L -126.65697 -3530.9187 C -128.77774 -3530.9187 -130.49697 -3532.638 -130.49697 -3534.7587 L -130.49697 -3551.0787 C -130.49697 -3553.1995 -128.77774 -3554.9187 -126.65697 -3554.9187 Z" fill="#666"/>
        <path d="M -126.65697 -3554.9187 L -110.33697 -3554.9187 C -108.21619 -3554.9187 -106.49697 -3553.1995 -106.49697 -3551.0787 L -106.49697 -3534.7587 C -106.49697 -3532.638 -108.21619 -3530.9187 -110.33697 -3530.9187 L -126.65697 -3530.9187 C -128.77774 -3530.9187 -130.49697 -3532.638 -130.49697 -3534.7587 L -130.49697 -3551.0787 C -130.49697 -3553.1995 -128.77774 -3554.9187 -126.65697 -3554.9187 Z" stroke="white" stroke-linecap="round" stroke-linejoin="round" stroke-width=".25"/>
      </g>
      <g id="Graphic_11700">
        <path d="M -112.64182 -3545.5517 L -112.64182 -3546.3515 C -112.64182 -3547.0143 -113.17908 -3547.5515 -113.84182 -3547.5515 L -118.24182 -3547.5515 C -119.12548 -3547.5515 -119.84182 -3548.268 -119.84182 -3549.1515 C -119.84182 -3549.5933 -120.2 -3549.9515 -120.64182 -3549.9515 L -125.84182 -3549.9515 C -126.50456 -3549.9515 -127.04182 -3549.4143 -127.04182 -3548.7515 L -127.04182 -3539.9515 C -127.04182 -3539.2888 -126.50456 -3538.7515 -125.84182 -3538.7515 L -125.04182 -3538.7515 C -124.37908 -3538.7515 -123.84182 -3539.2888 -123.84182 -3539.9515 L -123.84182 -3543.9515 C -123.84182 -3545.056 -122.94639 -3545.9515 -121.84182 -3545.9515 L -113.84182 -3545.9515 C -113.39158 -3545.9515 -112.97609 -3545.8027 -112.64182 -3545.5517 Z M -112.64182 -3543.9515 C -112.64182 -3544.6143 -113.17908 -3545.1515 -113.84182 -3545.1515 L -121.84182 -3545.1515 C -122.50456 -3545.1515 -123.04182 -3544.6143 -123.04182 -3543.9515 L -123.04182 -3539.9515 C -123.04182 -3539.5013 -123.1906 -3539.0858 -123.44168 -3538.7515 L -113.84182 -3538.7515 C -113.17908 -3538.7515 -112.64182 -3539.2888 -112.64182 -3539.9515 L -112.64182 -3543.9515 Z M -125.84182 -3550.7515 L -120.64182 -3550.7515 C -119.75817 -3550.7515 -119.04182 -3550.035 -119.04182 -3549.1515 C -119.04182 -3548.7097 -118.68365 -3548.3515 -118.24182 -3548.3515 L -113.84182 -3548.3515 C -112.73725 -3548.3515 -111.84182 -3547.456 -111.84182 -3546.3515 L -111.84182 -3539.9515 C -111.84182 -3538.847 -112.73725 -3537.9515 -113.84182 -3537.9515 L -125.84182 -3537.9515 C -126.94639 -3537.9515 -127.84182 -3538.847 -127.84182 -3539.9515 L -127.84182 -3548.7515 C -127.84182 -3549.856 -126.94639 -3550.7515 -125.84182 -3550.7515 Z" fill="#c0e0ff"/>
      </g>
      <g id="Graphic_11699">
        <path d="M -117.8562 -3537.626 C -117.78284 -3537.5403 -117.67382 -3537.486 -117.55211 -3537.486 C -117.4304 -3537.486 -117.32138 -3537.5403 -117.24801 -3537.626 Z M -125.15211 -3537.626 L -125.15211 -3537.086 C -125.15211 -3535.9813 -124.25668 -3535.086 -123.15211 -3535.086 L -111.15211 -3535.086 C -110.04754 -3535.086 -109.15211 -3535.9813 -109.15211 -3537.086 L -109.15211 -3543.486 C -109.15211 -3544.5905 -110.04754 -3545.486 -111.15211 -3545.486 L -111.47047 -3545.486 L -111.47047 -3544.686 L -111.15211 -3544.686 C -110.48937 -3544.686 -109.95211 -3544.1486 -109.95211 -3543.486 L -109.95211 -3537.086 C -109.95211 -3536.423 -110.48937 -3535.886 -111.15211 -3535.886 L -123.15211 -3535.886 C -123.81485 -3535.886 -124.35211 -3536.423 -124.35211 -3537.086 L -124.35211 -3537.626 Z" fill="#c0e0ff"/>
      </g>
    </g>
  </g>
</svg>
